X: 16790
T: Harper's Chair, The
R: slip jig
M: 9/8
K: Dmajor
|:AFD D2D DDD|AFD D2D GAB|AFD D2D DDD|d2B =cAF G3:|
|:AGA cde dcd|ecA def =gf=g|afd =gec dcd|ecA GAB =c3:|

